X: 10
T: White Petticoat, The
Z: Ralex
S: https://thesession.org/tunes/332#setting51118
R: jig
M: 6/8
L: 1/8
K: Emin
|:Bed cBA|GFE BEG|F2B cBB|eBB cBA|
Bed cBA|GFE BEG|F2B cBA|GED E3:|
|:gec Gce|gaf geg|cBA EAc|B2e eBG|
FBB GBB|FBA GFE|BEG FBA|GED E3:|

%-------------------- TUNE SEPARATOR --------------------%

